X:1
T:A minor Daniel Read, 1795 (Revised 1804)
T:Isaac Watts, 1709 (Hymn 63, Book 2) 86. 86. (C. M.)
T:Cypress A Funeral Thought No Copyright. Transcribed from The Columbian Harmonist, 1807.
%%score [ 1 2 3 4 ]
L:1/8
M:4/4
K:C
V:1 treble nm="Tr" snm="Tr."
V:2 treble nm="C" snm="C."
V:3 treble-8 nm="T" snm="T."
V:4 bass nm="B" snm="B."
V:1
 z4 c4- | c4 e2 e2 | e6 e2 | d6 c2 | B8 | z4 c4 | B6 B2 | c4 d4 | e8 | z4 e4 | c2 c2 B4 | %11
w: 1.~Hark!|* from the|tombs a|dole- ful|sound,|My|ears at-|tend the|cry,|Ye|liv- ing men,|
 B4 c2 B2 | (A4 ^G4) | z4 ^G4 | (c2 B4) A2 | (A2 G2) E4 | E8 | z4 c4 | (c2 B4) A2 | (AG c2) B4 | %20
w: come view the|ground *|Where|you * must|short- * ly|die,|Where|you * must|short- * * ly|
 A8 |] %21
w: die.|
V:2
 A8 | G2 G2 G4- | G6 E2 | A6 A2 | E8 | z4 G4 | G6 G2 | E4 A4 | ^G8 | z4 G4 | G2 G2 G4 | G4 F2 D2 | %12
w: 2.~Prin-|ces, this clay|* must|be your|bed,|In|spite of|all your|towers;|The|tall, the wise,|the reve- rend|
 E8 | z4 E4 | E6 E2 | E4 G4 | G8 | z4 G4 | G6 F2 | E4 E4 | E8 |] %21
w: head|Must|lie as|low as|ours,|Must|lie as|low as|ours.|
V:3
 z4 e4- | e4 B2 B2 | B6 c2 | A4 A4 | ^G8 | z4 e4 | (e2 d4) de | (c2 B2) A4 | B8 | z4 e4 | %10
w: 3.~Great|* God, is|this our|cer- tain|doom?|And|are * we *|still * se-|cure?|Still|
 g2 e2 d4 | d4 d2 d2 | c4 B4 | z4 e4 | (A2 ^G4) c2 | B4 B4 | B8 | z4 e4 | (e2 d4) d2 | %19
w: wal- king down-|ward to our|tomb, *|And|yet * pre-|pare no|more?|And|yet * pre-|
 (c2 BA) ^G4 | A8 |] %21
w: pare * * no|more?|
V:4
 A,8 | E,2 E,2 E,4- | E,6 C,2 | D,6 D,2 | E,8 | z4 C,4 | G,6 G,2 | (A,2 G,2) F,4 | E,8 | z4 C4 | %10
w: 4.~Grant|us the powers|* of|quick- ening|grace,|To|fit our|souls * to|fly;|Then,|
 C2 C2 G,4 | G,4 G,2 G,2 | E,8 | z4 E,4 | E,6 E,2 | E,4 E,4 | E,8 | z4 C,4 | (C,2 G,4) D,2 | %19
w: when we drop|this dy- ing|flesh,|We'll|rise a-|bove the|sky,|We'll|rise * a-|
 E,4 E,4 | A,,8 |] %21
w: bove the|sky.|

